X: 4
T: Did You Wash Your Father's Shirt
R: reel
M: 4/4
L: 1/8
K: Dmaj
g|fded cAAg|fdec d2de|fedc dAAB|1 =cAGE D3:|2 =cAGE D2D||
E|FGAB =cAAG|Addc d2 de|fdec dAAB|1 =cAGE D2 D:|2 =cAGE D3||

